image/buisnes-icon5.svg

<?xml version="1.0" encoding="UTF-8" standalone="no"?>
<svg width="64" xmlns="http://www.w3.org/2000/svg" fill="none" viewBox="0 0 64 64" height="64">
 <path stroke-linejoin="round" stroke="#E03D3B" stroke-width="3.7647" stroke-linecap="round" d="m40.939 21.067l9.333-9.334m5.333-5.3331l-5.333 5.3331 5.333-5.3331zm-25.626 25.627c1.377 1.358 2.471 2.976 3.22 4.759s1.139 3.697 1.145 5.632c0.006 1.934-0.37 3.85-1.107 5.639-0.737 1.788-1.821 3.413-3.189 4.781-1.368 1.367-2.992 2.451-4.781 3.188-1.788 0.738-3.704 1.114-5.639 1.107-1.934-0.006-3.848-0.395-5.631-1.144-1.784-0.75-3.401-1.844-4.7598-3.221-2.6716-2.766-4.15-6.471-4.1165-10.317 0.0334-3.845 1.5759-7.524 4.2952-10.243 2.7191-2.719 6.3981-4.262 10.243-4.295 3.846-0.034 7.551 1.445 10.317 4.116l0.003-0.002zm0 0l10.96-10.96-10.96 10.96zm10.96-10.96l8 8 9.333-9.334-8-8-9.333 9.334z"/>
</svg>

<svg width="64" height="64" viewBox="0 0 64 64" fill="none" xmlns="http://www.w3.org/2000/svg">
<path d="M40.9386 21.0666L50.2719 11.7332M55.6052 6.3999L50.2719 11.7332L55.6052 6.3999ZM29.9786 32.0266C31.3555 33.3851 32.45 35.0027 33.1992 36.786C33.9484 38.5693 34.3375 40.4833 34.344 42.4176C34.3504 44.3519 33.9742 46.2684 33.237 48.0567C32.4998 49.845 31.4161 51.4698 30.0483 52.8376C28.6805 54.2054 27.0557 55.2891 25.2674 56.0263C23.479 56.7636 21.5626 57.1398 19.6282 57.1333C17.6939 57.1268 15.78 56.7378 13.9967 55.9886C12.2133 55.2394 10.5958 54.1448 9.23722 52.7679C6.56557 50.0017 5.08725 46.2969 5.12067 42.4514C5.15409 38.6058 6.69657 34.9272 9.41588 32.2079C12.1352 29.4886 15.8138 27.9461 19.6593 27.9127C23.5049 27.8793 27.2097 29.3576 29.9759 32.0292L29.9786 32.0266ZM29.9786 32.0266L40.9386 21.0666L29.9786 32.0266ZM40.9386 21.0666L48.9386 29.0666L58.2719 19.7332L50.2719 11.7332L40.9386 21.0666Z" stroke="#E03D3B" stroke-width="3.76471" stroke-linecap="round" stroke-linejoin="round"/>
</svg>
